src/lib/packages/icons/src/assets/line/star-tag.svg

<svg width="24" height="24" viewBox="0 0 24 24" fill="none" xmlns="http://www.w3.org/2000/svg">
<path d="M12 22.75C11.231 22.75 10.527 22.397 10.066 21.783L8.56702 19.783C8.39402 19.554 8.12001 19.417 7.83301 19.417H6.33301C3.70001 19.417 2.25 17.967 2.25 15.334V5.33398C2.25 2.70098 3.70001 1.25098 6.33301 1.25098H17.667C20.3 1.25098 21.75 2.70098 21.75 5.33398V15.334C21.75 17.967 20.3 19.417 17.667 19.417H16.167C15.88 19.417 15.605 19.554 15.433 19.784L13.933 21.783C13.473 22.397 12.769 22.75 12 22.75ZM6.33301 2.75C4.52201 2.75 3.75 3.52201 3.75 5.33301V15.333C3.75 17.144 4.52201 17.916 6.33301 17.916H7.83301C8.58901 17.916 9.31197 18.277 9.76697 18.882L11.267 20.883C11.617 21.349 12.385 21.349 12.733 20.883L14.234 18.883C14.689 18.278 15.412 17.916 16.168 17.916H17.668C19.479 17.916 20.251 17.143 20.251 15.333V5.33301C20.251 3.52201 19.479 2.75 17.668 2.75H6.33301ZM14.696 15.75C14.482 15.75 14.267 15.698 14.069 15.594L12 14.505L9.93298 15.593C9.47498 15.833 8.93299 15.795 8.51599 15.491C8.09799 15.187 7.89198 14.681 7.97998 14.171L8.375 11.866L6.646 10.179C6.287 9.82902 6.15994 9.31398 6.31494 8.83698C6.46994 8.35997 6.87497 8.01902 7.37097 7.94702L9.76001 7.599L10.7939 5.50098C11.0229 5.03698 11.484 4.75 12.001 4.75C12.518 4.75 12.98 5.03801 13.208 5.50201L14.2419 7.59998L16.632 7.948C17.127 8.02 17.531 8.36101 17.687 8.83801C17.842 9.31501 17.715 9.82999 17.356 10.18L15.627 11.867L16.0229 14.174C16.1099 14.684 15.904 15.19 15.486 15.493C15.249 15.663 14.974 15.75 14.696 15.75ZM12 12.979C12.209 12.979 12.418 13.029 12.608 13.13L14.49 14.121L14.131 12.022C14.058 11.597 14.198 11.164 14.507 10.863L16.03 9.37598L13.924 9.07001C13.498 9.00801 13.131 8.74003 12.941 8.35303L12.001 6.44598L11.061 8.354C10.871 8.74 10.503 9.00801 10.078 9.07001L7.97205 9.37598L9.495 10.863C9.804 11.163 9.94397 11.597 9.87097 12.022L9.51196 14.12L11.394 13.129C11.582 13.029 11.791 12.979 12 12.979ZM16.415 9.43201H16.425H16.415ZM11.861 6.164C11.861 6.165 11.861 6.165 11.861 6.164C11.861 6.165 11.861 6.165 11.861 6.164Z" fill="currentColor"/>
</svg>

<svg xmlns="http://www.w3.org/2000/svg" width="24" height="24" fill="none"><path fill="currentColor" d="M12 22.75a2.398 2.398 0 0 1-1.934-.967l-1.499-2a.925.925 0 0 0-.734-.366h-1.5c-2.633 0-4.083-1.45-4.083-4.083v-10c0-2.633 1.45-4.083 4.083-4.083h11.334c2.633 0 4.083 1.45 4.083 4.083v10c0 2.633-1.45 4.083-4.083 4.083h-1.5a.921.921 0 0 0-.734.367l-1.5 1.999A2.394 2.394 0 0 1 12 22.75Zm-5.667-20c-1.811 0-2.583.772-2.583 2.583v10c0 1.811.772 2.583 2.583 2.583h1.5c.756 0 1.479.361 1.934.966l1.5 2.001c.35.466 1.118.466 1.466 0l1.501-2a2.433 2.433 0 0 1 1.934-.967h1.5c1.811 0 2.583-.773 2.583-2.583v-10c0-1.811-.772-2.583-2.583-2.583H6.333Zm8.363 13c-.214 0-.429-.052-.627-.156L12 14.505l-2.067 1.088c-.458.24-1 .202-1.417-.102a1.34 1.34 0 0 1-.536-1.32l.395-2.305-1.729-1.687a1.302 1.302 0 0 1-.331-1.342 1.3 1.3 0 0 1 1.056-.89l2.389-.348 1.034-2.098c.229-.464.69-.751 1.207-.751.517 0 .979.288 1.207.752L14.242 7.6l2.39.348c.495.072.899.413 1.055.89.155.477.028.992-.331 1.342l-1.729 1.687.396 2.307a1.34 1.34 0 0 1-.537 1.319c-.237.17-.512.257-.79.257ZM12 12.979c.209 0 .418.05.608.151l1.882.991-.359-2.099a1.308 1.308 0 0 1 .376-1.159l1.523-1.487-2.106-.306a1.304 1.304 0 0 1-.983-.717l-.94-1.907-.94 1.908c-.19.386-.558.654-.983.716l-2.106.306 1.523 1.487c.309.3.449.734.376 1.159l-.359 2.098 1.882-.991c.188-.1.397-.15.606-.15Zm4.415-3.547h.01-.01Zm-4.554-3.268c0 .001 0 .001 0 0 0 .001 0 .001 0 0Z"/></svg>
